suite-common/icons/assets/icons/calendar.svg

<svg xmlns="http://www.w3.org/2000/svg" fill="none" viewBox="0 0 24 24">
  <path fill="#000" fill-rule="evenodd" d="M7.333 1.621c-.287.172-.347.318-.366.887L6.95 3l-1.185.001c-.847 0-1.25.015-1.412.054-.413.097-.77.392-.998.825l-.095.18v15.88l.095.18c.249.469.624.762 1.076.839.198.034 2.286.043 7.949.034 6.477-.011 7.702-.022 7.82-.069.233-.093.551-.321.685-.49a2 2 0 0 0 .22-.387l.093-.227V4.18l-.093-.227a1.42 1.42 0 0 0-.556-.683c-.37-.244-.376-.244-1.774-.261l-1.285-.015-.017-.467c-.014-.403-.03-.491-.114-.641-.271-.481-.992-.491-1.284-.018-.08.129-.094.214-.108.64L15.95 3H8.49l-.017-.47c-.014-.406-.03-.494-.114-.644a.745.745 0 0 0-1.026-.265M6.96 4.89c0 .225.019.477.042.559a.747.747 0 0 0 .989.489c.365-.152.456-.336.481-.968l.019-.49h7.469v.41c0 .225.019.477.042.559a.747.747 0 0 0 .989.489c.365-.152.456-.336.481-.968l.019-.49h2.229v3.04h-15V4.48h2.24zm12.76 9.37v5.26h-15V9h15z"/>
</svg>

<svg xmlns="http://www.w3.org/2000/svg" fill="none" viewBox="0 0 24 24"><path d="M7.333 1.621 C 7.046 1.793,6.986 1.939,6.967 2.508 L 6.950 3.000 5.765 3.001 C 4.918 3.001,4.515 3.016,4.353 3.055 C 3.940 3.152,3.583 3.447,3.355 3.880 L 3.260 4.060 3.260 12.000 L 3.260 19.940 3.355 20.120 C 3.604 20.589,3.979 20.882,4.431 20.959 C 4.629 20.993,6.717 21.002,12.380 20.993 C 18.857 20.982,20.082 20.971,20.200 20.924 C 20.433 20.831,20.751 20.603,20.885 20.434 C 20.954 20.346,21.053 20.172,21.105 20.047 L 21.198 19.820 21.198 12.000 L 21.198 4.180 21.105 3.953 C 20.982 3.654,20.806 3.438,20.549 3.270 C 20.179 3.026,20.173 3.026,18.775 3.009 L 17.490 2.994 17.473 2.527 C 17.459 2.124,17.443 2.036,17.359 1.886 C 17.088 1.405,16.367 1.395,16.075 1.868 C 15.995 1.997,15.981 2.082,15.967 2.508 L 15.950 3.000 12.220 3.000 L 8.490 3.000 8.473 2.530 C 8.459 2.124,8.443 2.036,8.359 1.886 C 8.158 1.529,7.688 1.408,7.333 1.621 M6.960 4.890 C 6.960 5.115,6.979 5.367,7.002 5.449 C 7.118 5.868,7.595 6.104,7.991 5.938 C 8.356 5.786,8.447 5.602,8.472 4.970 L 8.491 4.480 12.225 4.480 L 15.960 4.480 15.960 4.890 C 15.960 5.115,15.979 5.367,16.002 5.449 C 16.118 5.868,16.595 6.104,16.991 5.938 C 17.356 5.786,17.447 5.602,17.472 4.970 L 17.491 4.480 18.605 4.480 L 19.720 4.480 19.720 6.000 L 19.720 7.520 12.220 7.520 L 4.720 7.520 4.720 6.000 L 4.720 4.480 5.840 4.480 L 6.960 4.480 6.960 4.890 M19.720 14.260 L 19.720 19.520 12.220 19.520 L 4.720 19.520 4.720 14.260 L 4.720 9.000 12.220 9.000 L 19.720 9.000 19.720 14.260 " stroke="none" fill-rule="evenodd" fill="black"></path></svg>
